X: 6131
T: Captain Kelly
R: reel
M: 4/4
K: Gmajor
GBAB G2 ge|d2BG AGEG-|GBAB G2 ge|dBAB G2(3GGG|
GBAB G2 ge|d2BG AGEG-|GBAB Gege|dBAB G2(3GBd||
g2bg agbg|d2fd fdad|g2 bg agbg|egfa g2(3def|
g2bg agbg|d2fd fdad|gbag bgag|egfa gedB||

